assets/icons/middle_bed.svg

<svg fill="none" height="48" viewBox="0 0 103 48" width="103" xmlns="http://www.w3.org/2000/svg" xmlns:xlink="http://www.w3.org/1999/xlink"><linearGradient id="a"><stop offset="0" stop-color="#c4c4c4"/><stop offset=".0001" stop-color="#18a0fb"/><stop offset="1" stop-color="#426bff"/></linearGradient><linearGradient id="b" gradientUnits="userSpaceOnUse" x1="3.87225" x2="3.87225" xlink:href="#a" y1="18.7026" y2="48.0001"/><linearGradient id="c" gradientUnits="userSpaceOnUse" x1="87.3829" x2="87.3829" xlink:href="#a" y1="0" y2="47.9934"/><linearGradient id="d" gradientUnits="userSpaceOnUse" x1="40.1095" x2="40.1095" xlink:href="#a" y1="24.9458" y2="45.8981"/><linearGradient id="e" gradientUnits="userSpaceOnUse" x1="84.4668" x2="84.4668" xlink:href="#a" y1="15.625" y2="25.3371"/><clipPath id="f"><path d="m0 0h102.377v48h-102.377z"/></clipPath><g clip-path="url(#f)"><path d="m7.7445 36.0615h-2.30941v-1.4003h2.30941v-7.9635h-2.30941v-5.4085c-.03448-.6975-.33584-1.3551-.8417-1.8366-.50586-.4814-1.17748-.75-1.87585-.75-.69836 0-1.36998.2686-1.875841.75-.50586.4815-.8072199 1.1391-.841699 1.8366v26.7109h5.43509v-7.2999h2.30941z" fill="url(#b)"/><path d="m99.6632.00000813c-.3575-.00087529-.7117.06890447-1.0422.20533087-.3305.136426-.6308.33681-.8837.589639-.2528.252832-.4532.553122-.5896.883632-.1364.3305-.2062.68471-.2053 1.04226v23.96353h-24.5542v7.9635h24.5542v1.4002h-24.5542v4.6454h24.5542v7.2999h5.4346v-45.27253c.001-.35699-.068-.71066-.204-1.04073s-.336-.63007-.588-.882809c-.252-.252742-.552-.453264-.882-.590082-.329-.1368171-.683-.20724193-1.0398-.20724087z" fill="url(#c)"/><path d="m71.061 42.8371s-.584 5.6608-22.7757 1.5861c-17.221-3.1655-21.0634 4.7516-39.15383-1.3273v-18.1501h61.95603z" fill="url(#d)"/><path d="m73.6624 25.337 12.6089-.0597c6.7955 0 9.6225-5.0767 9.6093-6.3243 0-3.0394-7.2999-4.8976-15.0378-1.533-7.2799 3.1522-8.8527 7.9369-7.1804 7.917z" fill="url(#e)"/></g></svg>

<svg width="103" height="48" viewBox="0 0 103 48" fill="none" xmlns="http://www.w3.org/2000/svg">
<g clip-path="url(#clip0_656_7708)">
<path d="M7.7445 36.0615H5.43509V34.6612H7.7445V26.6977H5.43509V21.2892C5.40061 20.5917 5.09925 19.9341 4.59339 19.4526C4.08753 18.9712 3.41591 18.7026 2.71754 18.7026C2.01918 18.7026 1.34756 18.9712 0.841699 19.4526C0.335839 19.9341 0.0344791 20.5917 0 21.2892L0 48.0001H5.43509V40.7002H7.7445V36.0615Z" fill="url(#paint0_linear_656_7708)"/>
<path d="M99.6632 8.13341e-06C99.3057 -0.000867157 98.9515 0.0689126 98.621 0.205339C98.2905 0.341765 97.9902 0.542149 97.7373 0.794978C97.4845 1.04781 97.2841 1.3481 97.1477 1.67861C97.0113 2.00911 96.9415 2.36332 96.9424 2.72087V26.6844H72.3882V34.6479H96.9424V36.0481H72.3882V40.6935H96.9424V47.9934H102.377V2.72087C102.378 2.36388 102.309 2.01021 102.173 1.68014C102.037 1.35007 101.837 1.05007 101.585 0.797331C101.333 0.544589 101.033 0.344067 100.703 0.207249C100.374 0.0704319 100.02 7.06636e-06 99.6632 8.13341e-06Z" fill="url(#paint1_linear_656_7708)"/>
<path d="M71.061 42.8371C71.061 42.8371 70.477 48.4979 48.2853 44.4232C31.0643 41.2577 27.2219 49.1748 9.13147 43.0959V24.9458H71.0875L71.061 42.8371Z" fill="url(#paint2_linear_656_7708)"/>
<path d="M73.6624 25.337L86.2713 25.2773C93.0668 25.2773 95.8938 20.2006 95.8806 18.953C95.8806 15.9136 88.5807 14.0554 80.8428 17.42C73.5629 20.5722 71.9901 25.3569 73.6624 25.337Z" fill="url(#paint3_linear_656_7708)"/>
</g>
<defs>
<linearGradient id="paint0_linear_656_7708" x1="3.87225" y1="18.7026" x2="3.87225" y2="48.0001" gradientUnits="userSpaceOnUse">
<stop stop-color="#C4C4C4"/>
<stop offset="0.0001" stop-color="#18A0FB"/>
<stop offset="1" stop-color="#426BFF"/>
</linearGradient>
<linearGradient id="paint1_linear_656_7708" x1="87.3829" y1="0" x2="87.3829" y2="47.9934" gradientUnits="userSpaceOnUse">
<stop stop-color="#C4C4C4"/>
<stop offset="0.0001" stop-color="#18A0FB"/>
<stop offset="1" stop-color="#426BFF"/>
</linearGradient>
<linearGradient id="paint2_linear_656_7708" x1="40.1095" y1="24.9458" x2="40.1095" y2="45.8981" gradientUnits="userSpaceOnUse">
<stop stop-color="#C4C4C4"/>
<stop offset="0.0001" stop-color="#18A0FB"/>
<stop offset="1" stop-color="#426BFF"/>
</linearGradient>
<linearGradient id="paint3_linear_656_7708" x1="84.4668" y1="15.625" x2="84.4668" y2="25.3371" gradientUnits="userSpaceOnUse">
<stop stop-color="#C4C4C4"/>
<stop offset="0.0001" stop-color="#18A0FB"/>
<stop offset="1" stop-color="#426BFF"/>
</linearGradient>
<clipPath id="clip0_656_7708">
<rect width="102.377" height="48" fill="white"/>
</clipPath>
</defs>
</svg>
